X: 43093
T: Winding Road
R: polka
M: 2/4
K: Dmajor
A>B AG|(3FGA DF|G>A GF|EF GE|A>B AG|(3FGA Dd|cA GE|E D3:|
d>e fd|cA A>A|BG G>B|cA A>c|d>e fd|cA A>B|(3cBA GE|D2 D2:|

